images/50097911.svg

<?xml version="1.0" encoding="UTF-8"?>
<svg xmlns="http://www.w3.org/2000/svg" xmlns:xlink="http://www.w3.org/1999/xlink" width="300pt" height="300pt" viewBox="0 0 300 300" version="1.1">
<defs>
<g>
<symbol overflow="visible" id="glyph0-0">
<path style="stroke:none;" d="M 0.453125 1.59375 L 0.453125 -6.34375 L 4.953125 -6.34375 L 4.953125 1.59375 Z M 0.953125 1.09375 L 4.453125 1.09375 L 4.453125 -5.84375 L 0.953125 -5.84375 Z M 0.953125 1.09375 "/>
</symbol>
<symbol overflow="visible" id="glyph0-1">
<path style="stroke:none;" d="M 0.890625 -6.5625 L 4.65625 -6.5625 L 4.65625 -5.8125 L 1.765625 -5.8125 L 1.765625 -3.875 L 4.375 -3.875 L 4.375 -3.140625 L 1.765625 -3.140625 L 1.765625 0 L 0.890625 0 Z M 0.890625 -6.5625 "/>
</symbol>
<symbol overflow="visible" id="glyph0-2">
<path style="stroke:none;" d="M 0.890625 -6.5625 L 2.078125 -6.5625 L 4.984375 -1.078125 L 4.984375 -6.5625 L 5.84375 -6.5625 L 5.84375 0 L 4.65625 0 L 1.75 -5.484375 L 1.75 0 L 0.890625 0 Z M 0.890625 -6.5625 "/>
</symbol>
<symbol overflow="visible" id="glyph0-3">
<path style="stroke:none;" d="M 0.890625 -6.5625 L 1.765625 -6.5625 L 1.765625 -3.875 L 5 -3.875 L 5 -6.5625 L 5.890625 -6.5625 L 5.890625 0 L 5 0 L 5 -3.125 L 1.765625 -3.125 L 1.765625 0 L 0.890625 0 Z M 0.890625 -6.5625 "/>
</symbol>
</g>
</defs>
<g id="surface27181">
<rect x="0" y="0" width="300" height="300" style="fill:rgb(100%,100%,100%);fill-opacity:1;stroke:none;"/>
<path style="fill:none;stroke-width:1.2;stroke-linecap:butt;stroke-linejoin:miter;stroke:rgb(20%,80%,80%);stroke-opacity:1;stroke-miterlimit:10;" d="M 214.183594 108.148438 L 221.40625 116.5 "/>
<path style="fill:none;stroke-width:1.2;stroke-linecap:butt;stroke-linejoin:miter;stroke:rgb(0%,0%,0%);stroke-opacity:1;stroke-miterlimit:10;" d="M 221.40625 116.5 L 228.625 124.851562 "/>
<path style=" stroke:none;fill-rule:nonzero;fill:rgb(100%,100%,100%);fill-opacity:1;" d="M 208.183594 102.648438 L 214.183594 102.648438 L 214.183594 113.648438 L 208.183594 113.648438 Z M 208.183594 102.648438 "/>
<g style="fill:rgb(20%,80%,80%);fill-opacity:1;">
  <use xlink:href="#glyph0-1" x="208.183594" y="111.311523"/>
</g>
<path style="fill:none;stroke-width:1.2;stroke-linecap:butt;stroke-linejoin:miter;stroke:rgb(0%,0%,0%);stroke-opacity:1;stroke-miterlimit:10;" d="M 228.625 124.851562 L 250.308594 120.695312 "/>
<path style="fill:none;stroke-width:1.2;stroke-linecap:butt;stroke-linejoin:miter;stroke:rgb(0%,0%,0%);stroke-opacity:1;stroke-miterlimit:10;" d="M 231.769531 129.539062 L 249.117188 126.214844 "/>
<path style="fill:none;stroke-width:1.2;stroke-linecap:butt;stroke-linejoin:miter;stroke:rgb(0%,0%,0%);stroke-opacity:1;stroke-miterlimit:10;" d="M 221.382812 145.707031 L 228.625 124.851562 "/>
<path style="fill:none;stroke-width:1.2;stroke-linecap:butt;stroke-linejoin:miter;stroke:rgb(0%,0%,0%);stroke-opacity:1;stroke-miterlimit:10;" d="M 250.308594 120.695312 L 264.75 137.398438 "/>
<path style="fill:none;stroke-width:1.2;stroke-linecap:butt;stroke-linejoin:miter;stroke:rgb(0%,0%,0%);stroke-opacity:1;stroke-miterlimit:10;" d="M 264.75 137.398438 L 257.507812 158.253906 "/>
<path style="fill:none;stroke-width:1.2;stroke-linecap:butt;stroke-linejoin:miter;stroke:rgb(0%,0%,0%);stroke-opacity:1;stroke-miterlimit:10;" d="M 259.117188 137.777344 L 253.324219 154.464844 "/>
<path style="fill:none;stroke-width:1.2;stroke-linecap:butt;stroke-linejoin:miter;stroke:rgb(0%,0%,0%);stroke-opacity:1;stroke-miterlimit:10;" d="M 257.507812 158.253906 L 235.820312 162.410156 "/>
<path style="fill:none;stroke-width:1.2;stroke-linecap:butt;stroke-linejoin:miter;stroke:rgb(0%,0%,0%);stroke-opacity:1;stroke-miterlimit:10;" d="M 235.820312 162.410156 L 221.382812 145.707031 "/>
<path style="fill:none;stroke-width:1.2;stroke-linecap:butt;stroke-linejoin:miter;stroke:rgb(0%,0%,0%);stroke-opacity:1;stroke-miterlimit:10;" d="M 238.308594 157.339844 L 226.753906 143.980469 "/>
<path style="fill:none;stroke-width:1.2;stroke-linecap:butt;stroke-linejoin:miter;stroke:rgb(0%,0%,0%);stroke-opacity:1;stroke-miterlimit:10;" d="M 221.382812 145.707031 L 210.539062 147.785156 "/>
<path style="fill:none;stroke-width:1.2;stroke-linecap:butt;stroke-linejoin:miter;stroke:rgb(0%,0%,100%);stroke-opacity:1;stroke-miterlimit:10;" d="M 210.539062 147.785156 L 199.699219 149.863281 "/>
<path style="fill:none;stroke-width:1.2;stroke-linecap:butt;stroke-linejoin:miter;stroke:rgb(0%,0%,100%);stroke-opacity:1;stroke-miterlimit:10;" d="M 199.699219 149.863281 L 192.476562 141.511719 "/>
<path style="fill:none;stroke-width:1.2;stroke-linecap:butt;stroke-linejoin:miter;stroke:rgb(0%,0%,0%);stroke-opacity:1;stroke-miterlimit:10;" d="M 192.476562 141.511719 L 185.257812 133.160156 "/>
<path style=" stroke:none;fill-rule:nonzero;fill:rgb(100%,100%,100%);fill-opacity:1;" d="M 192.699219 144.363281 L 206.699219 144.363281 L 206.699219 155.363281 L 192.699219 155.363281 Z M 192.699219 144.363281 "/>
<g style="fill:rgb(0%,0%,100%);fill-opacity:1;">
  <use xlink:href="#glyph0-2" x="192.699219" y="153.026367"/>
  <use xlink:href="#glyph0-3" x="199.676758" y="153.026367"/>
</g>
<path style="fill:none;stroke-width:1.2;stroke-linecap:butt;stroke-linejoin:miter;stroke:rgb(0%,0%,0%);stroke-opacity:1;stroke-miterlimit:10;" d="M 185.257812 133.160156 L 163.574219 137.316406 "/>
<path style="fill:none;stroke-width:1.2;stroke-linecap:butt;stroke-linejoin:miter;stroke:rgb(0%,0%,0%);stroke-opacity:1;stroke-miterlimit:10;" d="M 163.574219 137.316406 L 158.878906 147.308594 "/>
<path style="fill:none;stroke-width:1.2;stroke-linecap:butt;stroke-linejoin:miter;stroke:rgb(0%,0%,100%);stroke-opacity:1;stroke-miterlimit:10;" d="M 158.878906 147.308594 L 154.1875 157.300781 "/>
<path style="fill:none;stroke-width:1.2;stroke-linecap:butt;stroke-linejoin:miter;stroke:rgb(0%,0%,100%);stroke-opacity:1;stroke-miterlimit:10;" d="M 147.464844 122.214844 L 155.519531 129.765625 "/>
<path style="fill:none;stroke-width:1.2;stroke-linecap:butt;stroke-linejoin:miter;stroke:rgb(0%,0%,0%);stroke-opacity:1;stroke-miterlimit:10;" d="M 155.519531 129.765625 L 163.574219 137.316406 "/>
<path style="fill:none;stroke-width:1.2;stroke-linecap:butt;stroke-linejoin:miter;stroke:rgb(0%,0%,100%);stroke-opacity:1;stroke-miterlimit:10;" d="M 145.523438 127.515625 L 151.964844 133.558594 "/>
<path style="fill:none;stroke-width:1.2;stroke-linecap:butt;stroke-linejoin:miter;stroke:rgb(0%,0%,0%);stroke-opacity:1;stroke-miterlimit:10;" d="M 151.964844 133.558594 L 158.410156 139.597656 "/>
<path style="fill:none;stroke-width:1.2;stroke-linecap:butt;stroke-linejoin:miter;stroke:rgb(0%,0%,100%);stroke-opacity:1;stroke-miterlimit:10;" d="M 154.1875 157.300781 L 143.234375 155.925781 "/>
<path style="fill:none;stroke-width:1.2;stroke-linecap:butt;stroke-linejoin:miter;stroke:rgb(0%,0%,0%);stroke-opacity:1;stroke-miterlimit:10;" d="M 143.234375 155.925781 L 132.28125 154.554688 "/>
<path style=" stroke:none;fill-rule:nonzero;fill:rgb(100%,100%,100%);fill-opacity:1;" d="M 147.1875 151.800781 L 161.1875 151.800781 L 161.1875 162.800781 L 147.1875 162.800781 Z M 147.1875 151.800781 "/>
<g style="fill:rgb(0%,0%,100%);fill-opacity:1;">
  <use xlink:href="#glyph0-2" x="147.1875" y="160.463867"/>
  <use xlink:href="#glyph0-3" x="154.165039" y="160.463867"/>
</g>
<path style="fill:none;stroke-width:1.2;stroke-linecap:butt;stroke-linejoin:miter;stroke:rgb(0%,0%,0%);stroke-opacity:1;stroke-miterlimit:10;" d="M 132.28125 154.554688 L 128.125 132.867188 "/>
<path style="fill:none;stroke-width:1.2;stroke-linecap:butt;stroke-linejoin:miter;stroke:rgb(0%,0%,0%);stroke-opacity:1;stroke-miterlimit:10;" d="M 136.96875 151.40625 L 133.644531 134.058594 "/>
<path style="fill:none;stroke-width:1.2;stroke-linecap:butt;stroke-linejoin:miter;stroke:rgb(0%,0%,0%);stroke-opacity:1;stroke-miterlimit:10;" d="M 132.28125 154.554688 L 117.179688 170.660156 "/>
<path style="fill:none;stroke-width:1.2;stroke-linecap:butt;stroke-linejoin:miter;stroke:rgb(0%,0%,0%);stroke-opacity:1;stroke-miterlimit:10;" d="M 128.125 132.867188 L 137.796875 127.542969 "/>
<path style="fill:none;stroke-width:1.2;stroke-linecap:butt;stroke-linejoin:miter;stroke:rgb(0%,0%,100%);stroke-opacity:1;stroke-miterlimit:10;" d="M 137.796875 127.542969 L 147.464844 122.214844 "/>
<path style="fill:none;stroke-width:1.2;stroke-linecap:butt;stroke-linejoin:miter;stroke:rgb(0%,0%,0%);stroke-opacity:1;stroke-miterlimit:10;" d="M 128.125 132.867188 L 108.140625 123.484375 "/>
<path style=" stroke:none;fill-rule:nonzero;fill:rgb(100%,100%,100%);fill-opacity:1;" d="M 144.464844 116.714844 L 151.464844 116.714844 L 151.464844 127.714844 L 144.464844 127.714844 Z M 144.464844 116.714844 "/>
<g style="fill:rgb(0%,0%,100%);fill-opacity:1;">
  <use xlink:href="#glyph0-2" x="144.464844" y="125.37793"/>
</g>
<path style="fill:none;stroke-width:1.2;stroke-linecap:butt;stroke-linejoin:miter;stroke:rgb(0%,0%,0%);stroke-opacity:1;stroke-miterlimit:10;" d="M 108.140625 123.484375 L 106.277344 101.484375 "/>
<path style="fill:none;stroke-width:1.2;stroke-linecap:butt;stroke-linejoin:miter;stroke:rgb(0%,0%,0%);stroke-opacity:1;stroke-miterlimit:10;" d="M 108.140625 123.484375 L 90.023438 136.101562 "/>
<path style="fill:none;stroke-width:1.2;stroke-linecap:butt;stroke-linejoin:miter;stroke:rgb(0%,0%,0%);stroke-opacity:1;stroke-miterlimit:10;" d="M 103.359375 120.484375 L 88.867188 130.574219 "/>
<path style="fill:none;stroke-width:1.2;stroke-linecap:butt;stroke-linejoin:miter;stroke:rgb(0%,0%,0%);stroke-opacity:1;stroke-miterlimit:10;" d="M 106.277344 101.484375 L 86.289062 92.101562 "/>
<path style="fill:none;stroke-width:1.2;stroke-linecap:butt;stroke-linejoin:miter;stroke:rgb(0%,0%,0%);stroke-opacity:1;stroke-miterlimit:10;" d="M 102.070312 105.25 L 86.082031 97.742188 "/>
<path style="fill:none;stroke-width:1.2;stroke-linecap:butt;stroke-linejoin:miter;stroke:rgb(0%,0%,0%);stroke-opacity:1;stroke-miterlimit:10;" d="M 86.289062 92.101562 L 68.171875 104.71875 "/>
<path style="fill:none;stroke-width:1.2;stroke-linecap:butt;stroke-linejoin:miter;stroke:rgb(0%,0%,0%);stroke-opacity:1;stroke-miterlimit:10;" d="M 68.171875 104.71875 L 69.105469 115.71875 "/>
<path style="fill:none;stroke-width:1.2;stroke-linecap:butt;stroke-linejoin:miter;stroke:rgb(0%,0%,100%);stroke-opacity:1;stroke-miterlimit:10;" d="M 69.105469 115.71875 L 70.035156 126.714844 "/>
<path style="fill:none;stroke-width:1.2;stroke-linecap:butt;stroke-linejoin:miter;stroke:rgb(0%,0%,100%);stroke-opacity:1;stroke-miterlimit:10;" d="M 46.671875 99.691406 L 57.421875 102.203125 "/>
<path style="fill:none;stroke-width:1.2;stroke-linecap:butt;stroke-linejoin:miter;stroke:rgb(0%,0%,0%);stroke-opacity:1;stroke-miterlimit:10;" d="M 57.421875 102.203125 L 68.171875 104.71875 "/>
<path style="fill:none;stroke-width:1.2;stroke-linecap:butt;stroke-linejoin:miter;stroke:rgb(0%,0%,100%);stroke-opacity:1;stroke-miterlimit:10;" d="M 47.640625 105.253906 L 56.238281 107.265625 "/>
<path style="fill:none;stroke-width:1.2;stroke-linecap:butt;stroke-linejoin:miter;stroke:rgb(0%,0%,0%);stroke-opacity:1;stroke-miterlimit:10;" d="M 56.238281 107.265625 L 64.839844 109.273438 "/>
<path style="fill:none;stroke-width:1.2;stroke-linecap:butt;stroke-linejoin:miter;stroke:rgb(0%,0%,100%);stroke-opacity:1;stroke-miterlimit:10;" d="M 70.035156 126.714844 L 49.691406 135.289062 "/>
<path style="fill:none;stroke-width:1.2;stroke-linecap:butt;stroke-linejoin:miter;stroke:rgb(0%,0%,100%);stroke-opacity:1;stroke-miterlimit:10;" d="M 70.035156 126.714844 L 80.03125 131.410156 "/>
<path style="fill:none;stroke-width:1.2;stroke-linecap:butt;stroke-linejoin:miter;stroke:rgb(0%,0%,0%);stroke-opacity:1;stroke-miterlimit:10;" d="M 80.03125 131.410156 L 90.023438 136.101562 "/>
<path style=" stroke:none;fill-rule:nonzero;fill:rgb(100%,100%,100%);fill-opacity:1;" d="M 67.035156 121.214844 L 74.035156 121.214844 L 74.035156 132.214844 L 67.035156 132.214844 Z M 67.035156 121.214844 "/>
<g style="fill:rgb(0%,0%,100%);fill-opacity:1;">
  <use xlink:href="#glyph0-2" x="67.035156" y="129.87793"/>
</g>
<path style="fill:none;stroke-width:1.2;stroke-linecap:butt;stroke-linejoin:miter;stroke:rgb(0%,0%,100%);stroke-opacity:1;stroke-miterlimit:10;" d="M 49.691406 135.289062 L 42.46875 126.9375 "/>
<path style="fill:none;stroke-width:1.2;stroke-linecap:butt;stroke-linejoin:miter;stroke:rgb(0%,0%,0%);stroke-opacity:1;stroke-miterlimit:10;" d="M 42.46875 126.9375 L 35.25 118.589844 "/>
<path style="fill:none;stroke-width:1.2;stroke-linecap:butt;stroke-linejoin:miter;stroke:rgb(0%,0%,100%);stroke-opacity:1;stroke-miterlimit:10;" d="M 52.175781 130.222656 L 46.398438 123.539062 "/>
<path style="fill:none;stroke-width:1.2;stroke-linecap:butt;stroke-linejoin:miter;stroke:rgb(0%,0%,0%);stroke-opacity:1;stroke-miterlimit:10;" d="M 46.398438 123.539062 L 40.625 116.859375 "/>
<path style=" stroke:none;fill-rule:nonzero;fill:rgb(100%,100%,100%);fill-opacity:1;" d="M 46.691406 129.789062 L 53.691406 129.789062 L 53.691406 140.789062 L 46.691406 140.789062 Z M 46.691406 129.789062 "/>
<g style="fill:rgb(0%,0%,100%);fill-opacity:1;">
  <use xlink:href="#glyph0-2" x="46.691406" y="138.452148"/>
</g>
<path style="fill:none;stroke-width:1.2;stroke-linecap:butt;stroke-linejoin:miter;stroke:rgb(0%,0%,0%);stroke-opacity:1;stroke-miterlimit:10;" d="M 35.25 118.589844 L 40.960938 109.140625 "/>
<path style="fill:none;stroke-width:1.2;stroke-linecap:butt;stroke-linejoin:miter;stroke:rgb(0%,0%,100%);stroke-opacity:1;stroke-miterlimit:10;" d="M 40.960938 109.140625 L 46.671875 99.691406 "/>
<path style=" stroke:none;fill-rule:nonzero;fill:rgb(100%,100%,100%);fill-opacity:1;" d="M 43.671875 94.191406 L 50.671875 94.191406 L 50.671875 105.191406 L 43.671875 105.191406 Z M 43.671875 94.191406 "/>
<g style="fill:rgb(0%,0%,100%);fill-opacity:1;">
  <use xlink:href="#glyph0-2" x="43.671875" y="102.854492"/>
</g>
<path style="fill:none;stroke-width:1.2;stroke-linecap:butt;stroke-linejoin:miter;stroke:rgb(0%,0%,0%);stroke-opacity:1;stroke-miterlimit:10;" d="M 117.179688 170.660156 L 106.429688 168.148438 "/>
<path style="fill:none;stroke-width:1.2;stroke-linecap:butt;stroke-linejoin:miter;stroke:rgb(0%,0%,100%);stroke-opacity:1;stroke-miterlimit:10;" d="M 106.429688 168.148438 L 95.683594 165.636719 "/>
<path style="fill:none;stroke-width:1.2;stroke-linecap:butt;stroke-linejoin:miter;stroke:rgb(0%,0%,0%);stroke-opacity:1;stroke-miterlimit:10;" d="M 113.847656 175.214844 L 105.25 173.207031 "/>
<path style="fill:none;stroke-width:1.2;stroke-linecap:butt;stroke-linejoin:miter;stroke:rgb(0%,0%,100%);stroke-opacity:1;stroke-miterlimit:10;" d="M 105.25 173.207031 L 96.648438 171.199219 "/>
<path style="fill:none;stroke-width:1.2;stroke-linecap:butt;stroke-linejoin:miter;stroke:rgb(0%,0%,0%);stroke-opacity:1;stroke-miterlimit:10;" d="M 123.582031 191.792969 L 117.179688 170.660156 "/>
<path style="fill:none;stroke-width:1.2;stroke-linecap:butt;stroke-linejoin:miter;stroke:rgb(0%,0%,100%);stroke-opacity:1;stroke-miterlimit:10;" d="M 95.683594 165.636719 L 88.132812 173.691406 "/>
<path style="fill:none;stroke-width:1.2;stroke-linecap:butt;stroke-linejoin:miter;stroke:rgb(0%,0%,0%);stroke-opacity:1;stroke-miterlimit:10;" d="M 88.132812 173.691406 L 80.582031 181.742188 "/>
<path style=" stroke:none;fill-rule:nonzero;fill:rgb(100%,100%,100%);fill-opacity:1;" d="M 92.683594 160.136719 L 99.683594 160.136719 L 99.683594 171.136719 L 92.683594 171.136719 Z M 92.683594 160.136719 "/>
<g style="fill:rgb(0%,0%,100%);fill-opacity:1;">
  <use xlink:href="#glyph0-2" x="92.683594" y="168.799805"/>
</g>
<path style="fill:none;stroke-width:1.2;stroke-linecap:butt;stroke-linejoin:miter;stroke:rgb(0%,0%,0%);stroke-opacity:1;stroke-miterlimit:10;" d="M 80.582031 181.742188 L 86.980469 202.875 "/>
<path style="fill:none;stroke-width:1.2;stroke-linecap:butt;stroke-linejoin:miter;stroke:rgb(0%,0%,0%);stroke-opacity:1;stroke-miterlimit:10;" d="M 86.191406 182.351562 L 91.3125 199.257812 "/>
<path style="fill:none;stroke-width:1.2;stroke-linecap:butt;stroke-linejoin:miter;stroke:rgb(0%,0%,0%);stroke-opacity:1;stroke-miterlimit:10;" d="M 80.582031 181.742188 L 59.082031 176.71875 "/>
<path style="fill:none;stroke-width:1.2;stroke-linecap:butt;stroke-linejoin:miter;stroke:rgb(0%,0%,0%);stroke-opacity:1;stroke-miterlimit:10;" d="M 86.980469 202.875 L 108.480469 207.898438 "/>
<path style="fill:none;stroke-width:1.2;stroke-linecap:butt;stroke-linejoin:miter;stroke:rgb(0%,0%,0%);stroke-opacity:1;stroke-miterlimit:10;" d="M 108.480469 207.898438 L 123.582031 191.792969 "/>
<path style="fill:none;stroke-width:1.2;stroke-linecap:butt;stroke-linejoin:miter;stroke:rgb(0%,0%,0%);stroke-opacity:1;stroke-miterlimit:10;" d="M 106.199219 202.734375 L 118.28125 189.847656 "/>
</g>
</svg>

<svg xmlns="http://www.w3.org/2000/svg" xmlns:xlink="http://www.w3.org/1999/xlink" width="300pt" height="300pt" viewBox="0 0 300 300"><defs><symbol overflow="visible"><path d="M.453 1.594v-7.938h4.5v7.938zm.5-.5h3.5v-6.938h-3.5zm0 0"/></symbol><symbol overflow="visible" id="a"><path d="M.89-6.563h3.766v.75h-2.89v1.938h2.61v.734h-2.61V0H.89zm0 0"/></symbol><symbol overflow="visible" id="b"><path d="M.89-6.563H2.08l2.906 5.485v-5.484h.86V0H4.656L1.75-5.484V0H.89zm0 0"/></symbol><symbol overflow="visible" id="c"><path d="M.89-6.563h.876v2.688H5v-2.688h.89V0H5v-3.125H1.766V0H.89zm0 0"/></symbol></defs><g><path fill="#fff" d="M0 0h300v300H0z"/><path d="M214.184 108.148l7.222 8.352" stroke-width="1.2" stroke="#3cc" stroke-miterlimit="10" fill="none"/><path d="M221.406 116.5l7.22 8.352" stroke-width="1.2" stroke="#000" stroke-miterlimit="10" fill="none"/><path d="M208.184 102.648h6v11h-6zm0 0" fill="#fff"/><use xlink:href="#a" x="208.184" y="111.312" fill="#3cc"/><path d="M228.625 124.852l21.684-4.157M231.77 129.54l17.347-3.325M221.383 145.707l7.242-20.855M250.31 120.695l14.44 16.703M264.75 137.398l-7.242 20.856M259.117 137.777l-5.793 16.688M257.508 158.254l-21.688 4.156M235.82 162.41l-14.437-16.703M238.31 157.34l-11.556-13.36M221.383 145.707l-10.844 2.078" stroke-width="1.2" stroke="#000" stroke-miterlimit="10" fill="none"/><path d="M210.54 147.785l-10.84 2.078M199.7 149.863l-7.223-8.35" stroke-width="1.2" stroke="#00f" stroke-miterlimit="10" fill="none"/><path d="M192.477 141.512l-7.22-8.352" stroke-width="1.2" stroke="#000" stroke-miterlimit="10" fill="none"/><path d="M192.7 144.363h14v11h-14zm0 0" fill="#fff"/><g fill="#00f"><use xlink:href="#b" x="192.699" y="153.026"/><use xlink:href="#c" x="199.677" y="153.026"/></g><path d="M185.258 133.16l-21.684 4.156M163.574 137.316l-4.695 9.993" stroke-width="1.2" stroke="#000" stroke-miterlimit="10" fill="none"/><path d="M158.88 147.31l-4.692 9.99M147.465 122.215l8.055 7.55" stroke-width="1.2" stroke="#00f" stroke-miterlimit="10" fill="none"/><path d="M155.52 129.766l8.054 7.55" stroke-width="1.2" stroke="#000" stroke-miterlimit="10" fill="none"/><path d="M145.523 127.516l6.442 6.043" stroke-width="1.2" stroke="#00f" stroke-miterlimit="10" fill="none"/><path d="M151.965 133.56l6.445 6.038" stroke-width="1.2" stroke="#000" stroke-miterlimit="10" fill="none"/><path d="M154.188 157.3l-10.954-1.374" stroke-width="1.2" stroke="#00f" stroke-miterlimit="10" fill="none"/><path d="M143.234 155.926l-10.953-1.37" stroke-width="1.2" stroke="#000" stroke-miterlimit="10" fill="none"/><path d="M147.188 151.8h14v11h-14zm0 0" fill="#fff"/><g fill="#00f"><use xlink:href="#b" x="147.188" y="160.464"/><use xlink:href="#c" x="154.165" y="160.464"/></g><path d="M132.28 154.555l-4.155-21.688M136.97 151.406l-3.325-17.347M132.28 154.555l-15.1 16.105M128.125 132.867l9.672-5.324" stroke-width="1.2" stroke="#000" stroke-miterlimit="10" fill="none"/><path d="M137.797 127.543l9.668-5.328" stroke-width="1.2" stroke="#00f" stroke-miterlimit="10" fill="none"/><path d="M128.125 132.867l-19.984-9.383" stroke-width="1.2" stroke="#000" stroke-miterlimit="10" fill="none"/><path d="M144.465 116.715h7v11h-7zm0 0" fill="#fff"/><use xlink:href="#b" x="144.465" y="125.378" fill="#00f"/><path d="M108.14 123.484l-1.863-22M108.14 123.484l-18.117 12.618M103.36 120.484l-14.493 10.09M106.277 101.484L86.29 92.102M102.07 105.25l-15.988-7.508M86.29 92.102L68.17 104.72M68.172 104.72l.933 11" stroke-width="1.2" stroke="#000" stroke-miterlimit="10" fill="none"/><path d="M69.105 115.72l.93 10.995M46.672 99.69l10.75 2.513" stroke-width="1.2" stroke="#00f" stroke-miterlimit="10" fill="none"/><path d="M57.422 102.203l10.75 2.516" stroke-width="1.2" stroke="#000" stroke-miterlimit="10" fill="none"/><path d="M47.64 105.254l8.598 2.012" stroke-width="1.2" stroke="#00f" stroke-miterlimit="10" fill="none"/><path d="M56.238 107.266l8.602 2.007" stroke-width="1.2" stroke="#000" stroke-miterlimit="10" fill="none"/><path d="M70.035 126.715L49.69 135.29M70.035 126.715l9.996 4.695" stroke-width="1.2" stroke="#00f" stroke-miterlimit="10" fill="none"/><path d="M80.03 131.41l9.993 4.692" stroke-width="1.2" stroke="#000" stroke-miterlimit="10" fill="none"/><path d="M67.035 121.215h7v11h-7zm0 0" fill="#fff"/><use xlink:href="#b" x="67.035" y="129.878" fill="#00f"/><path d="M49.69 135.29l-7.22-8.352" stroke-width="1.2" stroke="#00f" stroke-miterlimit="10" fill="none"/><path d="M42.47 126.938l-7.22-8.348" stroke-width="1.2" stroke="#000" stroke-miterlimit="10" fill="none"/><path d="M52.176 130.223l-5.778-6.684" stroke-width="1.2" stroke="#00f" stroke-miterlimit="10" fill="none"/><path d="M46.398 123.54l-5.773-6.68" stroke-width="1.2" stroke="#000" stroke-miterlimit="10" fill="none"/><path d="M46.69 129.79h7v11h-7zm0 0" fill="#fff"/><use xlink:href="#b" x="46.691" y="138.452" fill="#00f"/><path d="M35.25 118.59l5.71-9.45" stroke-width="1.2" stroke="#000" stroke-miterlimit="10" fill="none"/><path d="M40.96 109.14l5.712-9.45" stroke-width="1.2" stroke="#00f" stroke-miterlimit="10" fill="none"/><path d="M43.672 94.19h7v11h-7zm0 0" fill="#fff"/><use xlink:href="#b" x="43.672" y="102.854" fill="#00f"/><path d="M117.18 170.66l-10.75-2.512" stroke-width="1.2" stroke="#000" stroke-miterlimit="10" fill="none"/><path d="M106.43 168.148l-10.746-2.51" stroke-width="1.2" stroke="#00f" stroke-miterlimit="10" fill="none"/><path d="M113.848 175.215l-8.598-2.008" stroke-width="1.2" stroke="#000" stroke-miterlimit="10" fill="none"/><path d="M105.25 173.207l-8.602-2.008" stroke-width="1.2" stroke="#00f" stroke-miterlimit="10" fill="none"/><path d="M123.582 191.793l-6.402-21.133" stroke-width="1.2" stroke="#000" stroke-miterlimit="10" fill="none"/><path d="M95.684 165.637l-7.55 8.054" stroke-width="1.2" stroke="#00f" stroke-miterlimit="10" fill="none"/><path d="M88.133 173.69l-7.55 8.052" stroke-width="1.2" stroke="#000" stroke-miterlimit="10" fill="none"/><path d="M92.684 160.137h7v11h-7zm0 0" fill="#fff"/><use xlink:href="#b" x="92.684" y="168.8" fill="#00f"/><path d="M80.582 181.742l6.398 21.133M86.19 182.352l5.123 16.906M80.582 181.742l-21.5-5.023M86.98 202.875l21.5 5.023M108.48 207.898l15.102-16.105M106.2 202.734l12.08-12.886" stroke-width="1.2" stroke="#000" stroke-miterlimit="10" fill="none"/></g></svg>
